X:1
T:Lovely Agnes
M:3/4
L:1/4
K:D
 D3/4- E/4| F A d3/4 B/4| A3/4 F/4 D d3/4 e/4| f e d| B2 B3/4 c/4|\
 d2 B| A3/4 F/4 D E| F A F| E2 D3/4 E/4| F A d| A3/4 F/4 D d3/4 f/4|\
 f e d| B2 B3/4 c/4| d d B| A3/4 F/4 D E| F/2 A F/2(3E3.99999962500005/11.9999985000002E3.99999962500005/11.9999985000002F3.99999962500005/11.9999985000002E3.99999962500005/11.9999985000002F3.99999962500005/11.9999985000002E3.99999962500005/11.9999985000002|\
 D2|
